hornpipes/bobbycaseys.htmlhornpipes/bobbycaseys.htmlhornpipes/bobbycaseys.htmlhornpipes/bobbycaseys.htmlhornpipes/bobbycaseys.htmlhornpipes/bobbycaseys.htmlhornpipes/bobbycaseys.htmlhornpipes/bobbycaseys.htmlhornpipes/bobbycaseys.html<PRE>T:Hag's Purse, The
T:Hag's Purse, The
M:6/8
L:1/8
R:jig
D:Alan & John Kelly: Fourmilehouse
Z:Devin McCabe
K:D
~B3 BAF|AFE EFE|DFA def|afe dBA|
!~B3 BAF|AFE EFE|DFA def|1edB Bdc:|2edB Bcd|
!:efd edB|AFF dFF|def af/2g/2a|bff afa|
!bff afa|baf edB|def afe|1dBA Bcd:|2dBA Bdc||
hornpipes/bobbycaseys.htmlhornpipes/bobbycaseys.htmlhornpipes/bobbycaseys.htmlhornpipes/bobbycaseys.htmlhornpipes/bobbycaseys.htmlhornpipes/bobbycaseys.htmlhornpipes/bobbycaseys.html